src/helpers/heroicons/outline/face-smile.svg

<svg width="24" height="24" viewBox="0 0 24 24" fill="none" xmlns="http://www.w3.org/2000/svg">
<path d="M15.182 15.182C13.4246 16.9393 10.5754 16.9393 8.81802 15.182M21 12C21 16.9706 16.9706 21 12 21C7.02944 21 3 16.9706 3 12C3 7.02944 7.02944 3 12 3C16.9706 3 21 7.02944 21 12ZM9.75 9.75C9.75 10.1642 9.58211 10.5 9.375 10.5C9.16789 10.5 9 10.1642 9 9.75C9 9.33579 9.16789 9 9.375 9C9.58211 9 9.75 9.33579 9.75 9.75ZM9.375 9.75H9.3825V9.765H9.375V9.75ZM15 9.75C15 10.1642 14.8321 10.5 14.625 10.5C14.4179 10.5 14.25 10.1642 14.25 9.75C14.25 9.33579 14.4179 9 14.625 9C14.8321 9 15 9.33579 15 9.75ZM14.625 9.75H14.6325V9.765H14.625V9.75Z"  stroke-width="1.5" stroke-linecap="round" stroke-linejoin="round"/>
</svg>

<svg xmlns="http://www.w3.org/2000/svg" fill="none" viewBox="0 0 24 24" stroke-width="1.5" stroke="currentColor" aria-hidden="true" data-slot="icon">
  <path stroke-linecap="round" stroke-linejoin="round" d="M15.182 15.182a4.5 4.5 0 0 1-6.364 0M21 12a9 9 0 1 1-18 0 9 9 0 0 1 18 0ZM9.75 9.75c0 .414-.168.75-.375.75S9 10.164 9 9.75 9.168 9 9.375 9s.375.336.375.75Zm-.375 0h.008v.015h-.008V9.75Zm5.625 0c0 .414-.168.75-.375.75s-.375-.336-.375-.75.168-.75.375-.75.375.336.375.75Zm-.375 0h.008v.015h-.008V9.75Z"/>
</svg>
